assets/post/images/tree1.svg

<svg xmlns="http://www.w3.org/2000/svg" width="2181" height="1062" overflow="hidden"><defs><clipPath id="a"><path d="M242 116h2181v1062H242z"/></clipPath></defs><g clip-path="url(#a)" transform="translate(-242 -116)"><path fill="#d74514" fill-rule="evenodd" stroke="#d74514" stroke-miterlimit="8" stroke-width="9.167" d="M758.5 199.5c0-43.63 35.146-79 78.5-79s78.5 35.37 78.5 79-35.146 79-78.5 79-78.5-35.37-78.5-79Z"/><text fill="#fff" font-family="Courier New,Courier New_MSFontService,sans-serif" font-size="83" font-weight="700" transform="translate(811.848 223)">x</text><path fill="#d74514" fill-rule="evenodd" stroke="#d74514" stroke-miterlimit="8" stroke-width="9.167" d="M508.5 449.5c0-43.63 35.146-79 78.5-79s78.5 35.37 78.5 79-35.146 79-78.5 79-78.5-35.37-78.5-79Z"/><text fill="#fff" font-family="Courier New,Courier New_MSFontService,sans-serif" font-size="83" font-weight="700" transform="translate(561.803 473)">y</text><path fill="#d74514" fill-rule="evenodd" stroke="#d74514" stroke-miterlimit="8" stroke-width="9.167" d="M350.5 752.5c0-43.631 35.37-79 79-79s79 35.369 79 79-35.37 79-79 79-79-35.37-79-79Z"/><text fill="#fff" font-family="Courier New,Courier New_MSFontService,sans-serif" font-size="83" font-weight="700" transform="translate(403.977 776)">z</text><path fill="#fdefe8" fill-rule="evenodd" stroke="#d74514" stroke-miterlimit="8" stroke-width="9.167" d="M1022.5 449.5c0-43.63 35.37-79 79-79s79 35.37 79 79-35.37 79-79 79-79-35.37-79-79Z"/><text fill="#d74514" font-family="Courier New,Courier New_MSFontService,sans-serif" font-size="83" font-weight="700" transform="translate(1076.39 473)">A</text><path fill="#fdefe8" fill-rule="evenodd" stroke="#d74514" stroke-miterlimit="8" stroke-width="9.167" d="M642.5 752.5c0-43.631 35.369-79 79-79s79 35.369 79 79-35.369 79-79 79-79-35.37-79-79Z"/><text fill="#d74514" font-family="Courier New,Courier New_MSFontService,sans-serif" font-size="83" font-weight="700" transform="translate(696.516 776)">B</text><path fill="#fdefe8" fill-rule="evenodd" stroke="#d74514" stroke-miterlimit="8" stroke-width="9.167" d="M246.5 1079.5c0-43.63 35.37-79 79-79s79 35.37 79 79-35.369 79-79 79-79-35.37-79-79Z"/><text fill="#d74514" font-family="Courier New,Courier New_MSFontService,sans-serif" font-size="83" font-weight="700" transform="translate(300.215 1102)">C</text><path fill="#fdefe8" fill-rule="evenodd" stroke="#d74514" stroke-miterlimit="8" stroke-width="9.167" d="M437.5 1079.5c0-43.63 35.37-79 79-79s79 35.37 79 79-35.37 79-79 79-79-35.37-79-79Z"/><text fill="#d74514" font-family="Courier New,Courier New_MSFontService,sans-serif" font-size="83" font-weight="700" transform="translate(491.203 1102)">D</text><path fill="none" stroke="#000" stroke-miterlimit="8" stroke-width="9.167" d="M642.5 393.893 780.945 255.5m264.495 138.393L892.5 255.5m-463 418.381L531.526 505.5m189.887 168.381L642.5 505.5m-317 494.494L373.462 808.5m142.464 191.494L484.5 808.5"/><path fill="#d74514" fill-rule="evenodd" stroke="#d74514" stroke-miterlimit="8" stroke-width="9.167" d="M1857.5 200.5c0-43.631 35.37-79 79-79s79 35.369 79 79-35.37 79-79 79-79-35.37-79-79Z"/><text fill="#fff" font-family="Courier New,Courier New_MSFontService,sans-serif" font-size="83" font-weight="700" transform="translate(1911.61 224)">y</text><path fill="#d74514" fill-rule="evenodd" stroke="#d74514" stroke-miterlimit="8" stroke-width="9.167" d="M1607.5 450.5c0-43.63 35.37-79 79-79s79 35.37 79 79-35.37 79-79 79-79-35.37-79-79Z"/><text fill="#fff" font-family="Courier New,Courier New_MSFontService,sans-serif" font-size="83" font-weight="700" transform="translate(1661.57 474)">z</text><path fill="#fdefe8" fill-rule="evenodd" stroke="#d74514" stroke-miterlimit="8" stroke-width="9.167" d="M1449.5 753.5c0-43.631 35.37-79 79-79s79 35.369 79 79-35.37 79-79 79-79-35.369-79-79Z"/><text fill="#d74514" font-family="Courier New,Courier New_MSFontService,sans-serif" font-size="83" font-weight="700" transform="translate(1503.74 777)">C</text><path fill="#d74514" fill-rule="evenodd" stroke="#d74514" stroke-miterlimit="8" stroke-width="9.167" d="M2122.5 450.5c0-43.63 35.37-79 79-79s79 35.37 79 79-35.37 79-79 79-79-35.37-79-79Z"/><text fill="#fff" font-family="Courier New,Courier New_MSFontService,sans-serif" font-size="83" font-weight="700" transform="translate(2176.15 474)">x</text><path fill="#fdefe8" fill-rule="evenodd" stroke="#d74514" stroke-miterlimit="8" stroke-width="9.167" d="M1742.5 753.5c0-43.631 35.37-79 79-79s79 35.369 79 79-35.37 79-79 79-79-35.369-79-79Z"/><text fill="#d74514" font-family="Courier New,Courier New_MSFontService,sans-serif" font-size="83" font-weight="700" transform="translate(1796.28 777)">D</text><path fill="none" stroke="#000" stroke-miterlimit="8" stroke-width="9.167" d="M1742.5 394.893 1880.945 256.5m264.495 138.393L1992.5 256.5m-464 418.381L1630.526 506.5m190.884 168.381L1742.5 506.5"/><path fill="#fdefe8" fill-rule="evenodd" stroke="#d74514" stroke-miterlimit="8" stroke-width="9.167" d="M1968.5 752.5c0-43.631 35.37-79 79-79s79 35.369 79 79-35.37 79-79 79-79-35.37-79-79Z"/><text fill="#d74514" font-family="Courier New,Courier New_MSFontService,sans-serif" font-size="83" font-weight="700" transform="translate(2022.29 776)">B</text><path fill="#fdefe8" fill-rule="evenodd" stroke="#d74514" stroke-miterlimit="8" stroke-width="9.167" d="M2261.5 752.5c0-43.631 35.15-79 78.5-79s78.5 35.369 78.5 79-35.15 79-78.5 79-78.5-35.37-78.5-79Z"/><text fill="#d74514" font-family="Courier New,Courier New_MSFontService,sans-serif" font-size="83" font-weight="700" transform="translate(2314.83 776)">A</text><path fill="none" stroke="#000" stroke-miterlimit="8" stroke-width="9.167" d="M2047.5 673.881 2149.526 505.5m190.884 168.381L2261.5 505.5"/><path fill="#d74514" fill-rule="evenodd" d="M1248 561.5h90V505l90 113-90 113v-56.5h-90Z"/></g></svg>

<svg width="2181" height="1062" xmlns="http://www.w3.org/2000/svg" xmlns:xlink="http://www.w3.org/1999/xlink" overflow="hidden"><defs><clipPath id="clip0"><rect x="242" y="116" width="2181" height="1062"/></clipPath></defs><g clip-path="url(#clip0)" transform="translate(-242 -116)"><path d="M758.5 199.5C758.5 155.87 793.646 120.5 837 120.5 880.354 120.5 915.5 155.87 915.5 199.5 915.5 243.13 880.354 278.5 837 278.5 793.646 278.5 758.5 243.13 758.5 199.5Z" stroke="#D74514" stroke-width="9.16667" stroke-miterlimit="8" fill="#D74514" fill-rule="evenodd"/><text fill="#FFFFFF" font-family="Courier New,Courier New_MSFontService,sans-serif" font-weight="700" font-size="83" transform="matrix(1 0 0 1 811.848 223)">x</text><path d="M508.5 449.5C508.5 405.87 543.646 370.5 587 370.5 630.354 370.5 665.5 405.87 665.5 449.5 665.5 493.13 630.354 528.5 587 528.5 543.646 528.5 508.5 493.13 508.5 449.5Z" stroke="#D74514" stroke-width="9.16667" stroke-miterlimit="8" fill="#D74514" fill-rule="evenodd"/><text fill="#FFFFFF" font-family="Courier New,Courier New_MSFontService,sans-serif" font-weight="700" font-size="83" transform="matrix(1 0 0 1 561.803 473)">y</text><path d="M350.5 752.5C350.5 708.869 385.87 673.5 429.5 673.5 473.13 673.5 508.5 708.869 508.5 752.5 508.5 796.13 473.13 831.5 429.5 831.5 385.87 831.5 350.5 796.13 350.5 752.5Z" stroke="#D74514" stroke-width="9.16667" stroke-miterlimit="8" fill="#D74514" fill-rule="evenodd"/><text fill="#FFFFFF" font-family="Courier New,Courier New_MSFontService,sans-serif" font-weight="700" font-size="83" transform="matrix(1 0 0 1 403.977 776)">z</text><path d="M1022.5 449.5C1022.5 405.87 1057.87 370.5 1101.5 370.5 1145.13 370.5 1180.5 405.87 1180.5 449.5 1180.5 493.13 1145.13 528.5 1101.5 528.5 1057.87 528.5 1022.5 493.13 1022.5 449.5Z" stroke="#D74514" stroke-width="9.16667" stroke-miterlimit="8" fill="#FDEFE8" fill-rule="evenodd"/><text fill="#D74514" font-family="Courier New,Courier New_MSFontService,sans-serif" font-weight="700" font-size="83" transform="matrix(1 0 0 1 1076.39 473)">A</text><path d="M642.5 752.5C642.5 708.869 677.869 673.5 721.5 673.5 765.131 673.5 800.5 708.869 800.5 752.5 800.5 796.13 765.131 831.5 721.5 831.5 677.869 831.5 642.5 796.13 642.5 752.5Z" stroke="#D74514" stroke-width="9.16667" stroke-miterlimit="8" fill="#FDEFE8" fill-rule="evenodd"/><text fill="#D74514" font-family="Courier New,Courier New_MSFontService,sans-serif" font-weight="700" font-size="83" transform="matrix(1 0 0 1 696.516 776)">B</text><path d="M246.5 1079.5C246.5 1035.87 281.87 1000.5 325.5 1000.5 369.131 1000.5 404.5 1035.87 404.5 1079.5 404.5 1123.13 369.131 1158.5 325.5 1158.5 281.87 1158.5 246.5 1123.13 246.5 1079.5Z" stroke="#D74514" stroke-width="9.16667" stroke-miterlimit="8" fill="#FDEFE8" fill-rule="evenodd"/><text fill="#D74514" font-family="Courier New,Courier New_MSFontService,sans-serif" font-weight="700" font-size="83" transform="matrix(1 0 0 1 300.215 1102)">C</text><path d="M437.5 1079.5C437.5 1035.87 472.87 1000.5 516.5 1000.5 560.13 1000.5 595.5 1035.87 595.5 1079.5 595.5 1123.13 560.13 1158.5 516.5 1158.5 472.87 1158.5 437.5 1123.13 437.5 1079.5Z" stroke="#D74514" stroke-width="9.16667" stroke-miterlimit="8" fill="#FDEFE8" fill-rule="evenodd"/><text fill="#D74514" font-family="Courier New,Courier New_MSFontService,sans-serif" font-weight="700" font-size="83" transform="matrix(1 0 0 1 491.203 1102)">D</text><path d="M0 0 138.445 138.393" stroke="#000000" stroke-width="9.16667" stroke-miterlimit="8" fill="none" fill-rule="evenodd" transform="matrix(1 0 0 -1 642.5 393.893)"/><path d="M1045.44 393.893 892.5 255.5" stroke="#000000" stroke-width="9.16667" stroke-miterlimit="8" fill="none" fill-rule="evenodd"/><path d="M0 0 102.026 168.381" stroke="#000000" stroke-width="9.16667" stroke-miterlimit="8" fill="none" fill-rule="evenodd" transform="matrix(1 0 0 -1 429.5 673.881)"/><path d="M721.413 673.881 642.5 505.5" stroke="#000000" stroke-width="9.16667" stroke-miterlimit="8" fill="none" fill-rule="evenodd"/><path d="M0 0 47.9619 191.494" stroke="#000000" stroke-width="9.16667" stroke-miterlimit="8" fill="none" fill-rule="evenodd" transform="matrix(1 0 0 -1 325.5 999.994)"/><path d="M515.926 999.994 484.5 808.5" stroke="#000000" stroke-width="9.16667" stroke-miterlimit="8" fill="none" fill-rule="evenodd"/><path d="M1857.5 200.5C1857.5 156.869 1892.87 121.5 1936.5 121.5 1980.13 121.5 2015.5 156.869 2015.5 200.5 2015.5 244.13 1980.13 279.5 1936.5 279.5 1892.87 279.5 1857.5 244.13 1857.5 200.5Z" stroke="#D74514" stroke-width="9.16667" stroke-miterlimit="8" fill="#D74514" fill-rule="evenodd"/><text fill="#FFFFFF" font-family="Courier New,Courier New_MSFontService,sans-serif" font-weight="700" font-size="83" transform="matrix(1 0 0 1 1911.61 224)">y</text><path d="M1607.5 450.5C1607.5 406.87 1642.87 371.5 1686.5 371.5 1730.13 371.5 1765.5 406.87 1765.5 450.5 1765.5 494.13 1730.13 529.5 1686.5 529.5 1642.87 529.5 1607.5 494.13 1607.5 450.5Z" stroke="#D74514" stroke-width="9.16667" stroke-miterlimit="8" fill="#D74514" fill-rule="evenodd"/><text fill="#FFFFFF" font-family="Courier New,Courier New_MSFontService,sans-serif" font-weight="700" font-size="83" transform="matrix(1 0 0 1 1661.57 474)">z</text><path d="M1449.5 753.5C1449.5 709.869 1484.87 674.5 1528.5 674.5 1572.13 674.5 1607.5 709.869 1607.5 753.5 1607.5 797.131 1572.13 832.5 1528.5 832.5 1484.87 832.5 1449.5 797.131 1449.5 753.5Z" stroke="#D74514" stroke-width="9.16667" stroke-miterlimit="8" fill="#FDEFE8" fill-rule="evenodd"/><text fill="#D74514" font-family="Courier New,Courier New_MSFontService,sans-serif" font-weight="700" font-size="83" transform="matrix(1 0 0 1 1503.74 777)">C</text><path d="M2122.5 450.5C2122.5 406.87 2157.87 371.5 2201.5 371.5 2245.13 371.5 2280.5 406.87 2280.5 450.5 2280.5 494.13 2245.13 529.5 2201.5 529.5 2157.87 529.5 2122.5 494.13 2122.5 450.5Z" stroke="#D74514" stroke-width="9.16667" stroke-miterlimit="8" fill="#D74514" fill-rule="evenodd"/><text fill="#FFFFFF" font-family="Courier New,Courier New_MSFontService,sans-serif" font-weight="700" font-size="83" transform="matrix(1 0 0 1 2176.15 474)">x</text><path d="M1742.5 753.5C1742.5 709.869 1777.87 674.5 1821.5 674.5 1865.13 674.5 1900.5 709.869 1900.5 753.5 1900.5 797.131 1865.13 832.5 1821.5 832.5 1777.87 832.5 1742.5 797.131 1742.5 753.5Z" stroke="#D74514" stroke-width="9.16667" stroke-miterlimit="8" fill="#FDEFE8" fill-rule="evenodd"/><text fill="#D74514" font-family="Courier New,Courier New_MSFontService,sans-serif" font-weight="700" font-size="83" transform="matrix(1 0 0 1 1796.28 777)">D</text><path d="M0 0 138.445 138.393" stroke="#000000" stroke-width="9.16667" stroke-miterlimit="8" fill="none" fill-rule="evenodd" transform="matrix(1 0 0 -1 1742.5 394.893)"/><path d="M2145.44 394.893 1992.5 256.5" stroke="#000000" stroke-width="9.16667" stroke-miterlimit="8" fill="none" fill-rule="evenodd"/><path d="M0 0 102.026 168.381" stroke="#000000" stroke-width="9.16667" stroke-miterlimit="8" fill="none" fill-rule="evenodd" transform="matrix(1 0 0 -1 1528.5 674.881)"/><path d="M1821.41 674.881 1742.5 506.5" stroke="#000000" stroke-width="9.16667" stroke-miterlimit="8" fill="none" fill-rule="evenodd"/><path d="M1968.5 752.5C1968.5 708.869 2003.87 673.5 2047.5 673.5 2091.13 673.5 2126.5 708.869 2126.5 752.5 2126.5 796.13 2091.13 831.5 2047.5 831.5 2003.87 831.5 1968.5 796.13 1968.5 752.5Z" stroke="#D74514" stroke-width="9.16667" stroke-miterlimit="8" fill="#FDEFE8" fill-rule="evenodd"/><text fill="#D74514" font-family="Courier New,Courier New_MSFontService,sans-serif" font-weight="700" font-size="83" transform="matrix(1 0 0 1 2022.29 776)">B</text><path d="M2261.5 752.5C2261.5 708.869 2296.65 673.5 2340 673.5 2383.35 673.5 2418.5 708.869 2418.5 752.5 2418.5 796.13 2383.35 831.5 2340 831.5 2296.65 831.5 2261.5 796.13 2261.5 752.5Z" stroke="#D74514" stroke-width="9.16667" stroke-miterlimit="8" fill="#FDEFE8" fill-rule="evenodd"/><text fill="#D74514" font-family="Courier New,Courier New_MSFontService,sans-serif" font-weight="700" font-size="83" transform="matrix(1 0 0 1 2314.83 776)">A</text><path d="M0 0 102.026 168.381" stroke="#000000" stroke-width="9.16667" stroke-miterlimit="8" fill="none" fill-rule="evenodd" transform="matrix(1 0 0 -1 2047.5 673.881)"/><path d="M2340.41 673.881 2261.5 505.5" stroke="#000000" stroke-width="9.16667" stroke-miterlimit="8" fill="none" fill-rule="evenodd"/><path d="M1248 561.5 1338 561.5 1338 505 1428 618 1338 731 1338 674.5 1248 674.5Z" fill="#D74514" fill-rule="evenodd"/></g></svg>
